X:158
T: ES KAM EIN MANN VON NINIVE
N: K2268
O: Europa, Mitteleuropa, Deutschland, Dresden
R: Kinder - Lied, Reigen, Tanz - Spiel
M: 2/4
L: 1/16
K: G
D2 | G2G2G2B2 | G2G2D2z2 |
A3GF2E2 | D2B2G2
D2 | G2G2G2B2 | G2G2D2z2 |
A3GF2E2 | D2B2G2

